src/img/megaphones.svg

<svg width="40" height="92" viewBox="0 0 40 92" fill="none" xmlns="http://www.w3.org/2000/svg">
<path d="M34.2303 17.0039C35.0267 18.2942 34.0717 19.9147 32.4798 19.9722C26.6672 20.1851 20.7405 21.5432 15.1528 24.2169L13.3051 25.2144C13.3051 25.2222 13.2796 25.1736 17.7776 32.4919C18.1904 33.1615 17.9454 34.0168 17.2304 34.4037L15.7731 35.1906C15.0581 35.5767 14.143 35.3476 13.7303 34.6779L9.24365 27.4082L8.51539 27.8021C7.08461 28.5742 5.25525 28.1159 4.429 26.7774L1.06423 21.3255C0.238812 19.987 0.728747 18.2756 2.15952 17.5026L8.79689 13.9175C13.8694 10.8478 18.1678 6.78337 21.3899 2.00218C22.2394 0.74136 24.2166 0.777871 25.0129 2.06821L27.8919 6.73396C29.546 5.84058 31.6619 6.37117 32.6169 7.91865C33.5718 9.46613 33.0047 11.4448 31.3505 12.3381L34.2303 17.0039Z" fill="#D1E7FF"/>
<path d="M32.6168 7.91887C33.5718 9.46636 33.0046 11.445 31.3505 12.3384L27.8918 6.73416C29.546 5.84078 31.6619 6.37137 32.6168 7.91887Z" fill="#D1E7FF"/>
<path d="M25.0129 2.06818C25.4102 2.7125 25.3847 3.5118 24.9451 4.13157C21.3983 9.13111 16.6444 13.6487 10.8305 17.1677L3.05386 21.3681C2.51991 21.6571 2.09724 22.0572 1.80162 22.5194L1.06423 21.3254C0.238812 19.9869 0.728747 18.2755 2.15952 17.5026L8.79689 13.9174C13.8694 10.8478 18.1678 6.78333 21.3899 2.00215C22.2394 0.741332 24.2165 0.777921 25.0129 2.06818Z" fill="#E8F3FF"/>
<path d="M8.79689 13.9177L15.1528 24.2171C13.8791 24.9047 9.78722 27.1145 8.51538 27.8023C7.08461 28.5745 5.25524 28.1161 4.429 26.7776L1.06423 21.3257C0.238812 19.9872 0.728747 18.2758 2.15952 17.5029L8.79689 13.9177Z" fill="#B9DCFF"/>
<path d="M10.8097 17.1794C2.36409 21.7406 2.92378 21.4233 2.65133 21.6216C2.13823 21.9951 1.38937 21.852 1.06411 21.3254C0.23869 19.9869 0.728625 18.2756 2.1594 17.5026L8.79677 13.9175L10.8097 17.1794Z" fill="#D1E7FF"/>
<path d="M14.515 27.183C12.152 28.463 13.8906 27.521 10.4577 29.3744L9.24365 27.4083L13.3051 25.2153L14.515 27.183Z" fill="#B9DCFF"/>
<path d="M32.41 11.4495C32.136 11.8014 31.7798 12.1067 31.3504 12.3382L27.8918 6.73412C28.3212 6.50185 28.782 6.36668 29.2446 6.32007C29.4186 6.60221 32.2582 11.2035 32.41 11.4495Z" fill="#B9DCFF"/>
<path d="M32.231 12.5215C34.8236 10.5404 33.928 6.62262 30.6884 5.81066C29.8419 5.5985 28.9656 5.64263 28.1623 5.92889L25.5882 1.75793C24.5407 0.0605986 21.9428 0.0156194 20.8274 1.67053C17.6614 6.36843 13.4435 10.3641 8.43582 13.3962C8.15067 13.5685 8.04496 13.9246 8.21369 14.2144C8.24076 14.2608 12.5045 21.1688 12.5328 21.2145C12.7161 21.5116 13.1222 21.6137 13.4402 21.442C13.7579 21.2704 13.8668 20.8903 13.6834 20.593L9.68499 14.1141C14.4599 11.1279 18.6887 7.17449 21.9514 2.33342C22.5349 1.46747 23.8913 1.49435 24.4375 2.37941L33.6546 17.3144C34.2015 18.2006 33.5458 19.3118 32.4541 19.3516C26.3293 19.5748 20.3328 21.0403 14.8502 23.6636C14.8269 23.6747 8.61087 27.0326 8.1828 27.2638C7.07165 27.864 5.64585 27.5066 5.00445 26.4671L1.6396 21.0146C0.998115 19.9752 1.38018 18.6414 2.49125 18.0412L6.54102 15.8539C6.85873 15.6823 6.9676 15.3022 6.78416 15.0049C6.60073 14.7076 6.19433 14.6059 5.8767 14.7775L1.82694 16.9648C0.0814388 17.9076 -0.518773 20.0031 0.488998 21.6361L3.85394 27.0885C4.86179 28.7216 7.10179 29.2829 8.84729 28.3401L9.0005 28.2574L13.1549 34.989C13.7516 35.9559 15.0711 36.2871 16.1053 35.7286L17.5624 34.9416C18.5962 34.3832 18.9498 33.1487 18.3529 32.1815L15.4086 27.4106C15.2252 27.1134 14.8188 27.0116 14.5011 27.1832C14.1834 27.3548 14.0746 27.7349 14.258 28.0321L17.2023 32.803C17.432 33.1751 17.296 33.6503 16.8981 33.8651L15.441 34.6522C15.0431 34.867 14.5353 34.7397 14.3056 34.3675L10.1512 27.6359L15.4703 24.7629C20.6753 22.275 26.4658 20.8136 32.5059 20.5935C34.5992 20.5171 35.8512 18.3873 34.8052 16.6928L32.231 12.5215ZM32.0412 8.22914C32.6971 9.29186 32.4615 10.6106 31.5536 11.4239L28.8395 7.02596C30.0293 6.69945 31.3748 7.14924 32.0412 8.22914ZM38.5387 5.46613L36.8199 6.39454C36.5019 6.56622 36.0958 6.46422 35.9124 6.16708C35.7289 5.86985 35.8379 5.48974 36.1556 5.31814L37.8744 4.38973C38.1924 4.21805 38.5985 4.32005 38.7819 4.61719C38.9653 4.91441 38.8565 5.29452 38.5387 5.46613ZM31.1467 1.92402L31.5659 0.460752C31.6609 0.129194 32.0249 -0.0674254 32.3796 0.0212904C32.734 0.110162 32.9443 0.450964 32.8493 0.782444L32.4301 2.24571C32.3353 2.57641 31.972 2.77404 31.6164 2.68517C31.2621 2.5963 31.0518 2.25558 31.1467 1.92402ZM39.8353 12.1022C39.7557 12.3798 39.4873 12.5629 39.1939 12.5629C39.0737 12.5629 39.1578 12.5757 37.4574 12.1495C37.103 12.0606 36.8927 11.7199 36.9876 11.3883C37.0826 11.0568 37.4469 10.8602 37.8013 10.9489L39.3655 11.3409C39.7198 11.4298 39.9302 11.7706 39.8353 12.1022Z" fill="#007FFC"/>
<path d="M34.2303 73.0039C35.0267 74.2942 34.0717 75.9147 32.4798 75.9722C26.6672 76.1851 20.7405 77.5432 15.1528 80.2169L13.3051 81.2144C13.3051 81.2222 13.2796 81.1736 17.7776 88.4919C18.1904 89.1615 17.9454 90.0168 17.2304 90.4037L15.7731 91.1906C15.0581 91.5767 14.143 91.3476 13.7303 90.6779L9.24365 83.4082L8.51539 83.8021C7.08461 84.5742 5.25525 84.1159 4.429 82.7774L1.06423 77.3255C0.238812 75.987 0.728747 74.2756 2.15952 73.5026L8.79689 69.9175C13.8694 66.8478 18.1678 62.7834 21.3899 58.0022C22.2394 56.7414 24.2166 56.7779 25.0129 58.0682L27.8919 62.734C29.546 61.8406 31.6619 62.3712 32.6169 63.9187C33.5718 65.4661 33.0047 67.4448 31.3505 68.3381L34.2303 73.0039Z" fill="#E1F4F5"/>
<path d="M32.6168 63.9189C33.5718 65.4664 33.0046 67.445 31.3505 68.3384L27.8918 62.7342C29.546 61.8408 31.6619 62.3714 32.6168 63.9189Z" fill="#E1F4F5"/>
<path d="M25.0129 58.0682C25.4102 58.7125 25.3847 59.5118 24.9451 60.1316C21.3983 65.1311 16.6444 69.6487 10.8305 73.1677L3.05386 77.3681C2.51991 77.6571 2.09724 78.0572 1.80162 78.5194L1.06423 77.3254C0.238812 75.9869 0.728747 74.2755 2.15952 73.5026L8.79689 69.9174C13.8694 66.8478 18.1678 62.7833 21.3899 58.0022C22.2394 56.7413 24.2165 56.7779 25.0129 58.0682Z" fill="#F4FEFF"/>
<path d="M8.79689 69.9177L15.1528 80.2171C13.8791 80.9047 9.78722 83.1145 8.51538 83.8023C7.08461 84.5745 5.25524 84.1161 4.429 82.7776L1.06423 77.3257C0.238812 75.9872 0.728747 74.2758 2.15952 73.5029L8.79689 69.9177Z" fill="#CAEFF2"/>
<path d="M10.8097 73.1794C2.36409 77.7406 2.92378 77.4233 2.65133 77.6216C2.13823 77.9951 1.38937 77.852 1.06411 77.3254C0.23869 75.9869 0.728625 74.2756 2.1594 73.5026L8.79677 69.9175L10.8097 73.1794Z" fill="#E1F4F5"/>
<path d="M14.515 83.183C12.152 84.463 13.8906 83.521 10.4577 85.3744L9.24365 83.4083L13.3051 81.2153L14.515 83.183Z" fill="#CAEFF2"/>
<path d="M32.41 67.4495C32.136 67.8014 31.7798 68.1067 31.3504 68.3382L27.8918 62.7341C28.3212 62.5018 28.782 62.3667 29.2446 62.3201C29.4186 62.6022 32.2582 67.2035 32.41 67.4495Z" fill="#CAEFF2"/>
<path d="M32.231 68.5215C34.8236 66.5404 33.928 62.6226 30.6884 61.8107C29.8419 61.5985 28.9656 61.6426 28.1623 61.9289L25.5882 57.7579C24.5407 56.0606 21.9428 56.0156 20.8274 57.6705C17.6614 62.3684 13.4435 66.3641 8.43582 69.3962C8.15067 69.5685 8.04496 69.9246 8.21369 70.2144C8.24076 70.2608 12.5045 77.1688 12.5328 77.2145C12.7161 77.5116 13.1222 77.6137 13.4402 77.442C13.7579 77.2704 13.8668 76.8903 13.6834 76.593L9.68499 70.1141C14.4599 67.1279 18.6887 63.1745 21.9514 58.3334C22.5349 57.4675 23.8913 57.4943 24.4375 58.3794L33.6546 73.3144C34.2015 74.2006 33.5458 75.3118 32.4541 75.3516C26.3293 75.5748 20.3328 77.0403 14.8502 79.6636C14.8269 79.6747 8.61087 83.0326 8.1828 83.2638C7.07165 83.864 5.64585 83.5066 5.00445 82.4671L1.6396 77.0146C0.998115 75.9752 1.38018 74.6414 2.49125 74.0412L6.54102 71.8539C6.85873 71.6823 6.9676 71.3022 6.78416 71.0049C6.60073 70.7076 6.19433 70.6059 5.8767 70.7775L1.82694 72.9648C0.0814388 73.9076 -0.518773 76.0031 0.488998 77.6361L3.85394 83.0885C4.86179 84.7216 7.10179 85.2829 8.84729 84.3401L9.0005 84.2574L13.1549 90.989C13.7516 91.9559 15.0711 92.2871 16.1053 91.7286L17.5624 90.9416C18.5962 90.3832 18.9498 89.1487 18.3529 88.1815L15.4086 83.4106C15.2252 83.1134 14.8188 83.0116 14.5011 83.1832C14.1834 83.3548 14.0746 83.7349 14.258 84.0321L17.2023 88.803C17.432 89.1751 17.296 89.6503 16.8981 89.8651L15.441 90.6522C15.0431 90.867 14.5353 90.7397 14.3056 90.3675L10.1512 83.6359L15.4703 80.7629C20.6753 78.275 26.4658 76.8136 32.5059 76.5935C34.5992 76.5171 35.8512 74.3873 34.8052 72.6928L32.231 68.5215ZM32.0412 64.2291C32.6971 65.2919 32.4615 66.6106 31.5536 67.4239L28.8395 63.026C30.0293 62.6994 31.3748 63.1492 32.0412 64.2291ZM38.5387 61.4661L36.8199 62.3945C36.5019 62.5662 36.0958 62.4642 35.9124 62.1671C35.7289 61.8699 35.8379 61.4897 36.1556 61.3181L37.8744 60.3897C38.1924 60.218 38.5985 60.32 38.7819 60.6172C38.9653 60.9144 38.8565 61.2945 38.5387 61.4661ZM31.1467 57.924L31.5659 56.4608C31.6609 56.1292 32.0249 55.9326 32.3796 56.0213C32.734 56.1102 32.9443 56.451 32.8493 56.7824L32.4301 58.2457C32.3353 58.5764 31.972 58.774 31.6164 58.6852C31.2621 58.5963 31.0518 58.2556 31.1467 57.924ZM39.8353 68.1022C39.7557 68.3798 39.4873 68.5629 39.1939 68.5629C39.0737 68.5629 39.1578 68.5757 37.4574 68.1495C37.103 68.0606 36.8927 67.7199 36.9876 67.3883C37.0826 67.0568 37.4469 66.8602 37.8013 66.9489L39.3655 67.3409C39.7198 67.4298 39.9302 67.7706 39.8353 68.1022Z" fill="#52C29D"/>
</svg>

<svg xmlns="http://www.w3.org/2000/svg" width="40" height="92" fill="none"><path fill="#D1E7FF" d="M34.23 17.004c.797 1.29-.158 2.91-1.75 2.968a43.86 43.86 0 0 0-17.327 4.245l-1.848.997c0 .008-.025-.04 4.473 7.278.412.67.167 1.525-.548 1.912l-1.457.787c-.715.386-1.63.157-2.043-.513l-4.486-7.27-.729.394c-1.43.772-3.26.314-4.086-1.025l-3.365-5.451C.24 19.987.73 18.276 2.16 17.503l6.637-3.585c5.072-3.07 9.37-7.135 12.593-11.916.85-1.26 2.827-1.224 3.623.066l2.879 4.666c1.654-.893 3.77-.363 4.725 1.185.955 1.547.388 3.526-1.266 4.42l2.88 4.665Z"/><path fill="#D1E7FF" d="M32.617 7.919c.955 1.547.388 3.526-1.266 4.42l-3.46-5.605c1.655-.893 3.77-.363 4.726 1.185Z"/><path fill="#E8F3FF" d="M25.013 2.068a1.854 1.854 0 0 1-.068 2.064c-3.547 5-8.3 9.517-14.114 13.036l-7.777 4.2c-.534.29-.957.69-1.252 1.151l-.738-1.194C.24 19.987.73 18.275 2.16 17.503l6.637-3.586c5.072-3.07 9.37-7.134 12.593-11.915.85-1.26 2.826-1.224 3.623.066Z"/><path fill="#B9DCFF" d="m8.797 13.918 6.356 10.3c-1.274.687-5.366 2.896-6.638 3.584-1.43.773-3.26.314-4.086-1.024l-3.365-5.452C.24 19.987.73 18.276 2.16 17.503l6.637-3.585Z"/><path fill="#D1E7FF" d="M10.81 17.18c-8.446 4.56-7.886 4.243-8.159 4.442-.513.373-1.262.23-1.587-.297-.825-1.338-.335-3.05 1.095-3.822l6.638-3.585 2.013 3.261Z"/><path fill="#B9DCFF" d="M14.515 27.183c-2.363 1.28-.624.338-4.057 2.191l-1.214-1.966 4.061-2.193 1.21 1.968ZM32.41 11.45c-.274.351-.63.657-1.06.888l-3.458-5.604c.43-.232.89-.367 1.353-.414l3.165 5.13Z"/><path fill="#007FFC" d="M32.231 12.521c2.593-1.98 1.697-5.898-1.543-6.71a4.358 4.358 0 0 0-2.526.118l-2.574-4.171C24.541.06 21.943.016 20.828 1.67c-3.167 4.697-7.384 8.693-12.392 11.725a.599.599 0 0 0-.222.818c.027.047 4.29 6.955 4.319 7 .183.298.59.4.907.228a.6.6 0 0 0 .243-.849l-3.998-6.479c4.775-2.986 9.004-6.94 12.266-11.78.584-.867 1.94-.84 2.486.045l9.218 14.935c.547.887-.11 1.998-1.2 2.038a44.547 44.547 0 0 0-17.605 4.312c-.023.01-6.24 3.369-6.667 3.6-1.111.6-2.537.243-3.179-.797L1.64 21.015c-.642-1.04-.26-2.374.851-2.974l4.05-2.187a.6.6 0 0 0 .243-.85.69.69 0 0 0-.907-.226l-4.05 2.187C.08 17.908-.52 20.003.489 21.636l3.365 5.453c1.008 1.633 3.248 2.194 4.993 1.251l.154-.083 4.154 6.732c.597.967 1.916 1.298 2.95.74l1.457-.787c1.034-.559 1.388-1.793.79-2.76L15.41 27.41a.69.69 0 0 0-.908-.228.6.6 0 0 0-.243.85l2.944 4.77c.23.372.094.847-.304 1.062l-1.457.787c-.398.215-.906.088-1.135-.285l-4.155-6.731 5.32-2.873a43.143 43.143 0 0 1 17.035-4.17c2.093-.076 3.345-2.206 2.3-3.9L32.23 12.52Zm-.19-4.292c.656 1.063.42 2.382-.487 3.195L28.84 7.026c1.19-.327 2.535.123 3.201 1.203Zm6.498-2.763-1.72.929a.69.69 0 0 1-.907-.228.6.6 0 0 1 .244-.849l1.718-.928a.69.69 0 0 1 .908.227.6.6 0 0 1-.243.85Zm-7.392-3.542.419-1.463c.095-.332.459-.528.814-.44.354.09.564.43.47.761l-.42 1.464c-.095.33-.458.528-.814.44-.354-.09-.564-.43-.47-.762Zm8.688 10.178a.66.66 0 0 1-.641.46c-.12 0-.036.014-1.737-.412-.354-.09-.564-.43-.47-.762.096-.331.46-.528.814-.44l1.564.393c.355.089.565.43.47.761Z"/><path fill="#E1F4F5" d="M34.23 73.004c.797 1.29-.158 2.91-1.75 2.968a43.86 43.86 0 0 0-17.327 4.245l-1.848.997c0 .008-.025-.04 4.473 7.278.412.67.167 1.525-.548 1.912l-1.457.787c-.715.386-1.63.157-2.043-.513l-4.486-7.27-.729.394c-1.43.772-3.26.314-4.086-1.025l-3.365-5.451C.24 75.987.73 74.276 2.16 73.503l6.637-3.585c5.072-3.07 9.37-7.135 12.593-11.916.85-1.26 2.827-1.224 3.623.066l2.879 4.666c1.654-.893 3.77-.363 4.725 1.185.955 1.547.388 3.526-1.266 4.42l2.88 4.665Z"/><path fill="#E1F4F5" d="M32.617 63.919c.955 1.547.388 3.526-1.266 4.42l-3.46-5.605c1.655-.893 3.77-.363 4.726 1.185Z"/><path fill="#F4FEFF" d="M25.013 58.068a1.854 1.854 0 0 1-.068 2.064c-3.547 5-8.3 9.517-14.114 13.036l-7.777 4.2c-.534.29-.957.69-1.252 1.151l-.738-1.194C.24 75.987.73 74.275 2.16 73.503l6.637-3.586c5.072-3.07 9.37-7.134 12.593-11.915.85-1.26 2.826-1.224 3.623.066Z"/><path fill="#CAEFF2" d="m8.797 69.918 6.356 10.3-6.638 3.584c-1.43.772-3.26.314-4.086-1.024l-3.365-5.452C.24 75.987.73 74.276 2.16 73.503l6.637-3.585Z"/><path fill="#E1F4F5" d="M10.81 73.18c-8.446 4.56-7.886 4.243-8.159 4.442-.513.373-1.262.23-1.587-.297-.825-1.338-.335-3.05 1.095-3.822l6.638-3.585 2.013 3.261Z"/><path fill="#CAEFF2" d="M14.515 83.183c-2.363 1.28-.624.338-4.057 2.191l-1.214-1.966 4.061-2.193 1.21 1.968ZM32.41 67.45c-.274.351-.63.657-1.06.888l-3.458-5.604c.43-.232.89-.367 1.353-.414l3.165 5.13Z"/><path fill="#52C29D" d="M32.231 68.522c2.593-1.982 1.697-5.9-1.543-6.711a4.357 4.357 0 0 0-2.526.118l-2.574-4.171c-1.047-1.697-3.645-1.742-4.76-.088-3.167 4.698-7.384 8.694-12.392 11.726a.599.599 0 0 0-.222.818c.027.047 4.29 6.955 4.319 7 .183.298.59.4.907.228a.6.6 0 0 0 .243-.849l-3.998-6.479c4.775-2.986 9.004-6.94 12.266-11.78.584-.867 1.94-.84 2.486.045l9.218 14.935c.547.887-.11 1.998-1.2 2.038a44.547 44.547 0 0 0-17.605 4.312c-.023.01-6.24 3.369-6.667 3.6-1.111.6-2.537.243-3.179-.797L1.64 77.015c-.642-1.04-.26-2.374.851-2.974l4.05-2.187a.6.6 0 0 0 .243-.85.69.69 0 0 0-.907-.227l-4.05 2.188C.08 73.908-.52 76.003.489 77.636l3.365 5.453c1.008 1.633 3.248 2.194 4.993 1.251l.154-.083 4.154 6.732c.597.967 1.916 1.298 2.95.74l1.457-.787c1.034-.559 1.388-1.793.79-2.76L15.41 83.41a.69.69 0 0 0-.908-.228.6.6 0 0 0-.243.85l2.944 4.77c.23.372.094.847-.304 1.062l-1.457.787c-.398.215-.906.088-1.135-.284l-4.155-6.732 5.32-2.873a43.143 43.143 0 0 1 17.035-4.17c2.093-.076 3.345-2.206 2.3-3.9l-2.575-4.171Zm-.19-4.293c.656 1.063.42 2.382-.487 3.195l-2.714-4.398c1.19-.327 2.535.123 3.201 1.203Zm6.498-2.763-1.72.928a.69.69 0 0 1-.907-.227.6.6 0 0 1 .244-.849l1.718-.928a.69.69 0 0 1 .908.227.6.6 0 0 1-.243.85Zm-7.392-3.542.419-1.463c.095-.332.459-.528.814-.44.354.09.564.43.47.761l-.42 1.464c-.095.33-.458.528-.814.44-.354-.09-.564-.43-.47-.762Zm8.688 10.178a.66.66 0 0 1-.641.46c-.12 0-.036.014-1.737-.412-.354-.09-.564-.43-.47-.762.096-.331.46-.528.814-.44l1.564.393c.355.089.565.43.47.761Z"/></svg>
